X:1199
T:The Bucks of Oranmore
M:C|
L:1/8
R:Reel
B:O'Neill's 1199
N:Collected by McFadden
Z:Transcribed by Trish O'Neil
K:D
dB|A2FAA2dB|3ABA FA BEEz|A2FAA2Bd|3efg fd ecdB|
A2FAA2dB|3ABA FA BEEF|DEFG AFAB|defd ecdB||
AD 3FEDA2dB|ADFA BEEz|AD 3FEDA2Bd|3efg fd ecdB|
AD 3FEDA2dB|AD 3FED BEEz|DEFG AFAB|defd efge||
3aba fd eddf|3aba fd eBBz|3aba fd eddf|3efg fd eBBz|
3aba fd eddf|3aba fd eBBz|3aba fd eddf|3gfe fd eBBd||
3fgf df 3efe de|3fgf df eBBz|3fgf df 3efe df|3efg fd eBBd|
3fgf df 3efe de|3fgf df eBBz|fabaf bfaf|3efg fd ecdB||
